img/svg/photo.svg

<svg xmlns="http://www.w3.org/2000/svg" preserveAspectRatio="xMidYMid" width="45" height="36" viewBox="0 0 45 36"><defs><style>.cls-2 { fill: #c1c9cf; }</style></defs><path d="M17.009 6h10c.553 0 1-.447 1-1 0-.552-.447-1-1-1h-10c-.553 0-1 .448-1 1 0 .553.447 1 1 1m5 8c-3.314 0-6 2.686-6 6 0 3.313 2.686 6 6 6 3.312 0 6-2.687 6-6 0-3.314-2.688-6-6-6m0 10c-2.209 0-4-1.791-4-4s1.791-4 4-4 4 1.791 4 4-1.791 4-4 4m0-14c-5.523 0-10 4.477-10 10s4.477 10 10 10 10-4.477 10-10-4.477-10-10-10m0 18c-4.418 0-8-3.581-8-8 0-4.418 3.582-8 8-8s8 3.582 8 8c0 4.419-3.582 8-8 8m15-12c-.553 0-1 .448-1 1 0 .553.447 1 1 1 .553 0 1-.447 1-1 0-.552-.447-1-1-1m0-8c-1.656 0-3 1.344-3 3 0 1.657 1.344 3 3 3s3-1.343 3-3c0-1.656-1.344-3-3-3m0 4c-.553 0-1-.447-1-1 0-.552.447-1 1-1 .553 0 1 .448 1 1 0 .553-.447 1-1 1m3-8h-4c-3 0-3-4-7-4h-14c-4 0-4 4-7 4h-4c-2.209 0-4 1.791-4 4v24c0 2.209 1.791 4 4 4h36c2.209 0 4-1.791 4-4v-24c0-2.209-1.791-4-4-4m2 20h-8.697c-.248.699-.555 1.368-.921 2h9.618v6c0 1.103-.897 2-2 2h-36c-1.104 0-2-.897-2-2v-6h9.619c-.367-.632-.674-1.301-.922-2h-8.697v-16c0-1.104.896-2 2-2h4c4 0 4-4 7-4h14c3 0 3 4 7 4h4c1.103 0 2 .896 2 2v16z" id="path-1" class="cls-2" fill-rule="evenodd"/></svg>

<svg xmlns="http://www.w3.org/2000/svg" xmlns:xlink="http://www.w3.org/1999/xlink" preserveAspectRatio="xMidYMid" width="45" height="36" viewBox="0 0 45 36">
  <defs>
    <style>

      .cls-2 {
        fill: #c1c9cf;
      }
    </style>
  </defs>
  <path d="M17.009,6.000 C17.009,6.000 27.009,6.000 27.009,6.000 C27.562,6.000 28.009,5.553 28.009,5.000 C28.009,4.448 27.562,4.000 27.009,4.000 C27.009,4.000 17.009,4.000 17.009,4.000 C16.456,4.000 16.009,4.448 16.009,5.000 C16.009,5.553 16.456,6.000 17.009,6.000 M22.009,14.000 C18.695,14.000 16.009,16.686 16.009,20.000 C16.009,23.313 18.695,26.000 22.009,26.000 C25.321,26.000 28.009,23.313 28.009,20.000 C28.009,16.686 25.321,14.000 22.009,14.000 M22.009,24.000 C19.800,24.000 18.009,22.209 18.009,20.000 C18.009,17.791 19.800,16.000 22.009,16.000 C24.218,16.000 26.009,17.791 26.009,20.000 C26.009,22.209 24.218,24.000 22.009,24.000 M22.009,10.000 C16.486,10.000 12.009,14.477 12.009,20.000 C12.009,25.523 16.486,30.000 22.009,30.000 C27.532,30.000 32.009,25.523 32.009,20.000 C32.009,14.477 27.532,10.000 22.009,10.000 M22.009,28.000 C17.591,28.000 14.009,24.419 14.009,20.000 C14.009,15.582 17.591,12.000 22.009,12.000 C26.427,12.000 30.009,15.582 30.009,20.000 C30.009,24.419 26.427,28.000 22.009,28.000 M37.009,16.000 C36.456,16.000 36.009,16.448 36.009,17.000 C36.009,17.553 36.456,18.000 37.009,18.000 C37.562,18.000 38.009,17.553 38.009,17.000 C38.009,16.448 37.562,16.000 37.009,16.000 M37.009,8.000 C35.353,8.000 34.009,9.344 34.009,11.000 C34.009,12.657 35.353,14.000 37.009,14.000 C38.665,14.000 40.009,12.657 40.009,11.000 C40.009,9.344 38.665,8.000 37.009,8.000 M37.009,12.000 C36.456,12.000 36.009,11.553 36.009,11.000 C36.009,10.448 36.456,10.000 37.009,10.000 C37.562,10.000 38.009,10.448 38.009,11.000 C38.009,11.553 37.562,12.000 37.009,12.000 M40.009,4.000 C40.009,4.000 36.009,4.000 36.009,4.000 C33.009,4.000 33.009,-0.000 29.009,-0.000 C29.009,-0.000 22.009,-0.000 22.009,-0.000 C22.009,-0.000 15.009,-0.000 15.009,-0.000 C11.009,-0.000 11.009,4.000 8.009,4.000 C8.009,4.000 4.009,4.000 4.009,4.000 C1.800,4.000 0.009,5.791 0.009,8.000 C0.009,8.000 0.009,32.000 0.009,32.000 C0.009,34.209 1.800,36.000 4.009,36.000 C4.009,36.000 40.009,36.000 40.009,36.000 C42.218,36.000 44.009,34.209 44.009,32.000 C44.009,32.000 44.009,8.000 44.009,8.000 C44.009,5.791 42.218,4.000 40.009,4.000 M42.009,24.000 C42.009,24.000 33.312,24.000 33.312,24.000 C33.064,24.699 32.757,25.368 32.391,26.000 C32.391,26.000 42.009,26.000 42.009,26.000 C42.009,26.000 42.009,32.000 42.009,32.000 C42.009,33.103 41.112,34.000 40.009,34.000 C40.009,34.000 4.009,34.000 4.009,34.000 C2.905,34.000 2.009,33.103 2.009,32.000 C2.009,32.000 2.009,26.000 2.009,26.000 C2.009,26.000 11.628,26.000 11.628,26.000 C11.261,25.368 10.954,24.699 10.706,24.000 C10.706,24.000 2.009,24.000 2.009,24.000 C2.009,24.000 2.009,8.000 2.009,8.000 C2.009,6.896 2.905,6.000 4.009,6.000 C4.009,6.000 8.009,6.000 8.009,6.000 C12.009,6.000 12.009,2.000 15.009,2.000 C15.009,2.000 22.009,2.000 22.009,2.000 C22.009,2.000 29.009,2.000 29.009,2.000 C32.009,2.000 32.009,6.000 36.009,6.000 C36.009,6.000 40.009,6.000 40.009,6.000 C41.112,6.000 42.009,6.896 42.009,8.000 C42.009,8.000 42.009,24.000 42.009,24.000 Z" id="path-1" class="cls-2" fill-rule="evenodd"/>
</svg>
